X: 08106
T: STEVE'S "Y" FACTOR
C: Bob McQuillen 25 Jan 91
B: Bob's Note Book 8 #106
%R: jig
Z: 2021 John Chambers <jc:trillian.mit.edu>
M: 6/8
L: 1/8
K: C
G2F \
| ECE GAG | FEF DEF | GEG cec | BAG FED |\
| CEG GAG | FEF DEF | GAc BAB | c3 :|
|: e2g \
| ecG cde | dBG Ged | cAc ecA | GEC DED |\
| CDE DEF | EFG FGA | Gce dcB | c3 :|
%%begintext align
%% Out in
%% Seattle, Steve Trempa established the
%% vertical component with his wonderful
%% jig entitled "The X Factor", so here is the
%% horizontal component to go along with it,
%% Steve! Best wishes always to you --
%%endtext

%%sep 1 1 500

%%sep 1 1 500

